src/next/cmd/sc_entirecell.svg

<svg height="16" width="16" xmlns="http://www.w3.org/2000/svg" xmlns:xlink="http://www.w3.org/1999/xlink"><linearGradient id="a" gradientTransform="matrix(1.0769499 0 0 1.3043803 2.256411 -24.351998)" gradientUnits="userSpaceOnUse" x1="46.048" x2="46.048" y1="128.01709" y2="16.6203"><stop offset="0" stop-color="#c7cdd7"/><stop offset="1" stop-color="#fff"/></linearGradient><linearGradient id="b" gradientTransform="matrix(1.07695 0 0 1.3091052 -3.487181 -52.656871)" gradientUnits="userSpaceOnUse" x1="114.6638" x2="114.6638" y1="101.334" y2="112.0004"><stop offset="0" stop-color="#e2e5ea"/><stop offset="1" stop-color="#e2e5ea" stop-opacity="0"/></linearGradient><linearGradient id="c" gradientTransform="matrix(1.5000376 0 0 1 35.999997 -1.334509)" gradientUnits="userSpaceOnUse" x1="53.332001" x2="53.332001" xlink:href="#g" y1="101.334" y2="117.3336"/><linearGradient id="d" gradientTransform="matrix(1.5000376 0 0 1 11.999997 -13.334003)" gradientUnits="userSpaceOnUse" x1="53.332001" x2="53.332001" y1="101.334" y2="117.3336"><stop offset="0" stop-color="#58a11e" stop-opacity=".988235"/><stop offset="1" stop-color="#59a220" stop-opacity="0"/></linearGradient><linearGradient id="e" gradientTransform="matrix(2 0 0 1.2 112 -25.599999)" gradientUnits="userSpaceOnUse" x1="8" x2="8" xlink:href="#g" y1="88" y2="108"/><linearGradient id="f" gradientTransform="matrix(1.5000376 0 0 1 11.999997 -13.334003)" gradientUnits="userSpaceOnUse" x1="53.332001" x2="53.332001" xlink:href="#g" y1="101.334" y2="117.3336"/><linearGradient id="g"><stop offset="0"/><stop offset="1" stop-opacity="0"/></linearGradient><linearGradient id="h" gradientUnits="userSpaceOnUse" x1="117.37973" x2="128" y1="-47.681248" y2="40"><stop offset="0" stop-color="#fff"/><stop offset="1" stop-color="#555"/></linearGradient><filter id="i" color-interpolation-filters="sRGB" height="1.306617" width="1.43589" x="-.217945" y="-.153309"><feGaussianBlur stdDeviation="3.1542391"/></filter><linearGradient id="j" gradientUnits="userSpaceOnUse" x1="32.81356" x2="28.745762" y1="44.474575" y2="19.254236"><stop offset="0" stop-color="#070707"/><stop offset="1" stop-color="#474747"/></linearGradient><linearGradient id="k" gradientTransform="matrix(.30769997 0 0 .33298929 46.358974 21.360456)" gradientUnits="userSpaceOnUse" x1="46.048" x2="46.048" y1="128.01709" y2="16.6203"><stop offset="0" stop-color="#f2fdeb"/><stop offset="1" stop-color="#c8ffa5"/></linearGradient><linearGradient id="l" gradientUnits="userSpaceOnUse" x1="117.37973" x2="128" y1="-47.681248" y2="40"><stop offset="0" stop-color="#5ca524"/><stop offset="1" stop-color="#58a11e" stop-opacity=".986274"/></linearGradient><g transform="scale(.125)"><path d="m8 80h112v17.4543h-112z" fill="url(#b)" opacity=".764706"/><path d="m8 0h112v80h-112z" fill="url(#a)"/><text x="552.36987" y="202.81038"><tspan fill="#555" x="552.36987" y="219.61037"/></text><path d="m112 99.999496h4v15.999604h-4z" fill="url(#c)" transform="matrix(-2 0 0 1.5000375 232 -70.002993)"/><path d="m88 88h4v15.9996h-4z" fill="url(#d)" transform="matrix(-2 0 0 1.5000375 264 -52.003297)"/><path d="m120 80h8v24h-8z" fill="url(#e)"/><text x="284.18808" y="202.81038"><tspan fill="#555" x="284.18808" y="219.61037"/></text><text x="-10.252362" y="133.87732"><tspan fill="#555" x="-10.252362" y="150.67731"/></text><text x="161.66467" y="-39.856026"><tspan fill="#555" x="161.66467" y="-23.056038"/></text><path d="m88 88h4v15.9996h-4z" fill="url(#f)" transform="matrix(-2 0 0 1.5000375 224 -52.003297)"/><path d="m0 0v4 20 4 20 4 26.3125 1.6875h8 32 8 32 8 32 8v-1.6875-78.3125h-120zm8 4h32v20h-32zm40 0h32v20h-32zm40 0h32v20h-32zm-80 24h32v20h-32zm40 0h32v20h-32zm40 0h32v20h-32zm-80 24h32v26.3125h-32zm40 0h32v26.3125h-32zm40 0h32v26.3125h-32z" fill="url(#h)"/><text x="681.37421" y="191.74835"><tspan fill="#555" x="681.37421" y="208.54834"/></text><text x="386.93372" y="122.81529"><tspan fill="#555" x="386.93372" y="139.61528"/></text><text x="916.79553" y="269.00107"><tspan fill="#555" x="916.79553" y="285.80106"/></text><path d="m48 27.577166h32v20.422834h-32z" fill="url(#k)"/><path d="m40 24v4 20 4h8 32 8v-4-20-4h-8-32zm8 4h32v20h-32z" fill="url(#l)"/><path d="m4 2v5h1 7v-.5-4.5h-1-6zm1 1h6v3.5h-6z" fill="#fff" transform="scale(8)"/><g transform="matrix(1.5 0 0 1.5 36.393174 31.078175)"><path d="m22.708984 3.9453125c-3.643939.037094-6.935512 3.3597782-6.935546 7.0039065v43.93164c.000478 4.147308 4.37543 7.703362 8.435546 6.857422l9.992188-2.080078 2.375 1.714844c1.876701 1.356544 5.885119 3.607037 8.047558 2.778906.01858-.0069 1.255573-.463996 2.644531-1.242187.617506-.345969 1.597838-.928014 2.550781-1.839844.431928-.413294 1.210343-1.264146 1.753907-2.351563.691831-1.384039-.303632-5.000467-.844433-7.163671-.0036-.01429-.05031-.245884-.05859-.283204l6.132812-4.144531c3.40028-2.297728 3.941244-7.821553 1.052735-10.736328l-.002-.002-30.099567-30.3710469c-1.314483-1.3259965-3.177893-2.0906385-5.044922-2.0722656z" filter="url(#i)" opacity=".76"/><path d="m17.03125 7.3398438c-2.671376.0271922-5.082006 2.4632515-5.082031 5.1347652v43.931641c.000351 3.040395 3.205165 5.647504 6.18164 5.027344l10.800782-2.248047 4.670087 5.587096c1.376447.994944 3.261915 1.239033 4.847657.63086h.002c.01282-.0048 1.149662-.428397 2.396484-1.126953.577508-.32356 1.382234-.803021 2.171875-1.558594.368036-.352159.950562-.988787 1.375-1.837891.513582-1.027443-.77469-5.741835-1.175947-7.346862-.03825-.153003-.209942-.997624-.332031-1.582031l7.173828-4.847656c2.493301-1.684843 2.890644-5.734647.771484-7.871094l-30.101609-30.373047c-.963649-.9720894-2.328545-1.5330004-3.697266-1.5195312h-.002z" fill="#fff" transform="translate(5.694915 -3.525424)"/><path d="m23.737884 11.281217v40.419921l11.863281-2.470703c.263538-.05442.537815.0044.755859.16211l6.527477 6.654892c.285679-.118453.599894-.234307 1.154297-.544922.384975-.215689.749087-.464247.9375-.644531.06051-.0579.06738-.07382.08789-.101562-.320785-1.338154-3.156382-8.467393-3.156382-8.467393-.07594-.378615.08265-.765836.402343-.982422l9.074219-6.130859z" fill="url(#j)"/></g></g></svg>

<?xml version="1.0" encoding="UTF-8" standalone="no"?>
<svg
   xmlns:dc="http://purl.org/dc/elements/1.1/"
   xmlns:cc="http://creativecommons.org/ns#"
   xmlns:rdf="http://www.w3.org/1999/02/22-rdf-syntax-ns#"
   xmlns:svg="http://www.w3.org/2000/svg"
   xmlns="http://www.w3.org/2000/svg"
   xmlns:xlink="http://www.w3.org/1999/xlink"
   xmlns:sodipodi="http://sodipodi.sourceforge.net/DTD/sodipodi-0.dtd"
   xmlns:inkscape="http://www.inkscape.org/namespaces/inkscape"
   height="16"
   width="16"
   version="1.1"
   id="svg104"
   sodipodi:docname="sc_entirecell.svg"
   inkscape:version="0.92.3 (2405546, 2018-03-11)"
   inkscape:export-filename="/home/rizmut/Dokumen/Rizmut/Github/libreoffice-style-karasa-jaga/build/next/cmd/sc_entirecell.png"
   inkscape:export-xdpi="96"
   inkscape:export-ydpi="96">
  <metadata
     id="metadata110">
    <rdf:RDF>
      <cc:Work
         rdf:about="">
        <dc:format>image/svg+xml</dc:format>
        <dc:type
           rdf:resource="http://purl.org/dc/dcmitype/StillImage" />
        <dc:title></dc:title>
      </cc:Work>
    </rdf:RDF>
  </metadata>
  <defs
     id="defs108" />
  <sodipodi:namedview
     pagecolor="#ffffff"
     bordercolor="#666666"
     borderopacity="1"
     objecttolerance="10"
     gridtolerance="10"
     guidetolerance="10"
     inkscape:pageopacity="0"
     inkscape:pageshadow="2"
     inkscape:window-width="1366"
     inkscape:window-height="714"
     id="namedview106"
     showgrid="true"
     inkscape:zoom="29.5"
     inkscape:cx="11.297206"
     inkscape:cy="10.149404"
     inkscape:window-x="0"
     inkscape:window-y="28"
     inkscape:window-maximized="1"
     inkscape:current-layer="g3847">
    <inkscape:grid
       type="xygrid"
       id="grid112"
       spacingx="0.5"
       spacingy="0.5"
       empspacing="2" />
  </sodipodi:namedview>
  <linearGradient
     id="a"
     gradientTransform="matrix(1.0769499,0,0,1.3043803,2.256411,-24.351998)"
     gradientUnits="userSpaceOnUse"
     x1="46.048"
     x2="46.048"
     y1="128.01709"
     y2="16.6203">
    <stop
       offset="0"
       stop-color="#c7cdd7"
       id="stop2" />
    <stop
       offset="1"
       stop-color="#fff"
       id="stop4" />
  </linearGradient>
  <linearGradient
     id="b"
     gradientTransform="matrix(1.07695,0,0,1.3091052,-3.487181,-52.656871)"
     gradientUnits="userSpaceOnUse"
     x1="114.6638"
     x2="114.6638"
     y1="101.334"
     y2="112.0004">
    <stop
       offset="0"
       stop-color="#e2e5ea"
       id="stop7" />
    <stop
       offset="1"
       stop-color="#e2e5ea"
       stop-opacity="0"
       id="stop9" />
  </linearGradient>
  <linearGradient
     id="c"
     gradientTransform="matrix(1.5000376,0,0,1,35.999997,-1.334509)"
     gradientUnits="userSpaceOnUse"
     x1="53.332001"
     x2="53.332001"
     xlink:href="#g"
     y1="101.334"
     y2="117.3336" />
  <linearGradient
     id="d"
     gradientTransform="matrix(1.5000376,0,0,1,11.999997,-13.334003)"
     gradientUnits="userSpaceOnUse"
     x1="53.332001"
     x2="53.332001"
     y1="101.334"
     y2="117.3336">
    <stop
       offset="0"
       stop-color="#58a11e"
       stop-opacity=".988235"
       id="stop13" />
    <stop
       offset="1"
       stop-color="#59a220"
       stop-opacity="0"
       id="stop15" />
  </linearGradient>
  <linearGradient
     id="e"
     gradientTransform="matrix(2,0,0,1.2,112,-25.599999)"
     gradientUnits="userSpaceOnUse"
     x1="8"
     x2="8"
     xlink:href="#g"
     y1="88"
     y2="108" />
  <linearGradient
     id="f"
     gradientTransform="matrix(1.5000376,0,0,1,11.999997,-13.334003)"
     gradientUnits="userSpaceOnUse"
     x1="53.332001"
     x2="53.332001"
     xlink:href="#g"
     y1="101.334"
     y2="117.3336" />
  <linearGradient
     id="g">
    <stop
       offset="0"
       id="stop20" />
    <stop
       offset="1"
       stop-opacity="0"
       id="stop22" />
  </linearGradient>
  <linearGradient
     id="h"
     gradientUnits="userSpaceOnUse"
     x1="117.37973"
     x2="128"
     y1="-47.681248"
     y2="40">
    <stop
       offset="0"
       stop-color="#fff"
       id="stop25" />
    <stop
       offset="1"
       stop-color="#555"
       id="stop27" />
  </linearGradient>
  <filter
     id="i"
     height="1.306617"
     width="1.43589"
     x="-0.21794499"
     y="-0.153309"
     style="color-interpolation-filters:sRGB">
    <feGaussianBlur
       stdDeviation="3.1542391"
       id="feGaussianBlur30" />
  </filter>
  <linearGradient
     id="j"
     gradientUnits="userSpaceOnUse"
     x1="32.81356"
     x2="28.745762"
     y1="44.474575"
     y2="19.254236">
    <stop
       offset="0"
       stop-color="#070707"
       id="stop33" />
    <stop
       offset="1"
       stop-color="#474747"
       id="stop35" />
  </linearGradient>
  <linearGradient
     id="k"
     gradientTransform="matrix(0.30769997,0,0,0.33298929,46.358974,21.360456)"
     gradientUnits="userSpaceOnUse"
     x1="46.048"
     x2="46.048"
     y1="128.01709"
     y2="16.6203">
    <stop
       offset="0"
       stop-color="#f2fdeb"
       id="stop38" />
    <stop
       offset="1"
       stop-color="#c8ffa5"
       id="stop40" />
  </linearGradient>
  <linearGradient
     id="l"
     gradientUnits="userSpaceOnUse"
     x1="117.37973"
     x2="128"
     y1="-47.681248"
     y2="40">
    <stop
       offset="0"
       stop-color="#5ca524"
       id="stop43" />
    <stop
       offset="1"
       stop-color="#58a11e"
       stop-opacity=".986274"
       id="stop45" />
  </linearGradient>
  <g
     id="g3847"
     transform="scale(0.125)">
    <path
       id="path48"
       d="M 8,80 H 120 V 97.4543 H 8 Z"
       style="opacity:0.764706;fill:url(#b)"
       inkscape:connector-curvature="0" />
    <path
       id="path50"
       d="M 8,0 H 120 V 80 H 8 Z"
       style="fill:url(#a)"
       inkscape:connector-curvature="0" />
    <text
       id="text54"
       y="202.81038"
       x="552.36987">
      <tspan
         id="tspan52"
         y="219.61037"
         x="552.36987"
         style="fill:#555555" />
    </text>
    <path
       id="path58"
       transform="matrix(-2,0,0,1.5000375,232,-70.002993)"
       d="m 112,99.999496 h 4 V 115.9991 h -4 z"
       style="fill:url(#c)"
       inkscape:connector-curvature="0" />
    <path
       id="path60"
       transform="matrix(-2,0,0,1.5000375,264,-52.003297)"
       d="m 88,88 h 4 v 15.9996 h -4 z"
       style="fill:url(#d)"
       inkscape:connector-curvature="0" />
    <path
       id="path62"
       d="m 120,80 h 8 v 24 h -8 z"
       style="fill:url(#e)"
       inkscape:connector-curvature="0" />
    <text
       id="text66"
       y="202.81038"
       x="284.18808">
      <tspan
         id="tspan64"
         y="219.61037"
         x="284.18808"
         style="fill:#555555" />
    </text>
    <text
       id="text70"
       y="133.87732"
       x="-10.252362">
      <tspan
         id="tspan68"
         y="150.67731"
         x="-10.252362"
         style="fill:#555555" />
    </text>
    <text
       id="text74"
       y="-39.856026"
       x="161.66467">
      <tspan
         id="tspan72"
         y="-23.056038"
         x="161.66467"
         style="fill:#555555" />
    </text>
    <path
       id="path76"
       transform="matrix(-2,0,0,1.5000375,224,-52.003297)"
       d="m 88,88 h 4 v 15.9996 h -4 z"
       style="fill:url(#f)"
       inkscape:connector-curvature="0" />
    <path
       id="path78"
       d="M 0,0 V 4 24 28 48 52 78.3125 80 h 8 32 8 32 8 32 8 V 78.3125 0 H 8 Z M 8,4 H 40 V 24 H 8 Z M 48,4 H 80 V 24 H 48 Z m 40,0 h 32 V 24 H 88 Z M 8,28 H 40 V 48 H 8 Z m 40,0 H 80 V 48 H 48 Z m 40,0 h 32 V 48 H 88 Z M 8,52 H 40 V 78.3125 H 8 Z m 40,0 H 80 V 78.3125 H 48 Z m 40,0 h 32 V 78.3125 H 88 Z"
       style="fill:url(#h)"
       inkscape:connector-curvature="0" />
    <text
       id="text82"
       y="191.74835"
       x="681.37421">
      <tspan
         id="tspan80"
         y="208.54834"
         x="681.37421"
         style="fill:#555555" />
    </text>
    <text
       id="text86"
       y="122.81529"
       x="386.93372">
      <tspan
         id="tspan84"
         y="139.61528"
         x="386.93372"
         style="fill:#555555" />
    </text>
    <text
       id="text90"
       y="269.00107"
       x="916.79553">
      <tspan
         id="tspan88"
         y="285.80106"
         x="916.79553"
         style="fill:#555555" />
    </text>
    <path
       id="path92"
       d="M 48,27.577166 H 80 V 48 H 48 Z"
       style="fill:url(#k)"
       inkscape:connector-curvature="0" />
    <path
       id="path94"
       d="m 40,24 v 4 20 4 h 8 32 8 V 48 28 24 H 80 48 Z m 8,4 H 80 V 48 H 48 Z"
       style="fill:url(#l)"
       inkscape:connector-curvature="0" />
    <path
       style="fill:#ffffff;stroke-width:1"
       d="M 4 2 L 4 7 L 5 7 L 12 7 L 12 6.5 L 12 2 L 11 2 L 5 2 L 4 2 z M 5 3 L 11 3 L 11 6.5 L 5 6.5 L 5 3 z "
       transform="scale(8)"
       id="rect3849" />
    <g
       id="g102"
       transform="matrix(1.5,0,0,1.5,36.393174,31.078175)">
      <path
         id="path96"
         d="m 22.708984,3.9453125 c -3.643939,0.037094 -6.935512,3.3597782 -6.935546,7.0039065 v 43.93164 c 4.78e-4,4.147308 4.37543,7.703362 8.435546,6.857422 l 9.992188,-2.080078 2.375,1.714844 c 1.876701,1.356544 5.885119,3.607037 8.047558,2.778906 0.01858,-0.0069 1.255573,-0.463996 2.644531,-1.242187 0.617506,-0.345969 1.597838,-0.928014 2.550781,-1.839844 0.431928,-0.413294 1.210343,-1.264146 1.753907,-2.351563 0.691831,-1.384039 -0.303632,-5.000467 -0.844433,-7.163671 -0.0036,-0.01429 -0.05031,-0.245884 -0.05859,-0.283204 l 6.132812,-4.144531 c 3.40028,-2.297728 3.941244,-7.821553 1.052735,-10.736328 l -0.002,-0.002 L 27.753906,6.0175781 C 26.439423,4.6915816 24.576013,3.9269396 22.708984,3.9453125 Z"
         inkscape:connector-curvature="0"
         style="opacity:0.76000001;filter:url(#i)" />
      <path
         id="path98"
         transform="translate(5.694915,-3.525424)"
         d="M 17.03125,7.3398438 C 14.359874,7.367036 11.949244,9.8030953 11.949219,12.474609 V 56.40625 c 3.51e-4,3.040395 3.205165,5.647504 6.18164,5.027344 l 10.800782,-2.248047 4.670087,5.587096 c 1.376447,0.994944 3.261915,1.239033 4.847657,0.63086 h 0.002 c 0.01282,-0.0048 1.149662,-0.428397 2.396484,-1.126953 0.577508,-0.32356 1.382234,-0.803021 2.171875,-1.558594 0.368036,-0.352159 0.950562,-0.988787 1.375,-1.837891 0.513582,-1.027443 -0.77469,-5.741835 -1.175947,-7.346862 -0.03825,-0.153003 -0.209942,-0.997624 -0.332031,-1.582031 l 7.173828,-4.847656 c 2.493301,-1.684843 2.890644,-5.734647 0.771484,-7.871094 L 20.730469,8.859375 C 19.76682,7.8872856 18.401924,7.3263746 17.033203,7.3398438 h -0.002 z"
         inkscape:connector-curvature="0"
         style="fill:#ffffff" />
      <path
         id="path100"
         d="m 23.737884,11.281217 v 40.419921 l 11.863281,-2.470703 c 0.263538,-0.05442 0.537815,0.0044 0.755859,0.16211 l 6.527477,6.654892 c 0.285679,-0.118453 0.599894,-0.234307 1.154297,-0.544922 0.384975,-0.215689 0.749087,-0.464247 0.9375,-0.644531 0.06051,-0.0579 0.06738,-0.07382 0.08789,-0.101562 -0.320785,-1.338154 -3.156382,-8.467393 -3.156382,-8.467393 -0.07594,-0.378615 0.08265,-0.765836 0.402343,-0.982422 l 9.074219,-6.130859 z"
         style="fill:url(#j)"
         inkscape:connector-curvature="0" />
    </g>
  </g>
</svg>
